src/lib/runemarks/svg/factions-chaos-bladeborn-khagras-ravagers.svg

<svg xmlns="http://www.w3.org/2000/svg" xml:space="preserve" fill-rule="evenodd" stroke-linejoin="round" stroke-miterlimit="2" clip-rule="evenodd" viewBox="0 0 300 300"><path fill-rule="nonzero" d="M111.988 209.077c-5.491 3.196-11.668 4.611-13.471 7.829-7.85 15.636-26.404 18.382-36.893 30.673 0 .537-2.488.386-3.131 0a4.08 4.08 0 0 1-1.03-2.681c0-.258.021-.537.086-.793v.021c6.156-15.401 15.657-28.313 27.669-38.373l.15-.129c11.754-8.923 11.754-9.395 4.697-21.836a67.8 67.8 0 0 1-5.791-13.255l-.15-.493c-3.281-10.103-6.027-11.111-13.621-3.067-3.067 3.196-3.904 4.376-6.177 0-3.754-7.057-8.537-7.829-13.492-1.243s-8.3 4.226-14.414.708c-7.378-3.518-16.86-7.315-26.555-10.638l-2.102-.622c-5.555-2.488-5.706-7.829 0-10.103 11.132-4.847 22.714-8.837 34.297-12.763a7.8 7.8 0 0 1 7.036 1.803c5.555 7.829 10.811 6.435 14.951-.472s4.397-2.831 7.271.472c5.812 6.564 6.97 6.177 10.511-1.159 2.123-4.611 3.754-9.545 6.112-14.092 6.885-13.298 6.262-14.542-6.112-24.646-10.574-9.159-18.79-20.72-23.872-33.847l-.193-.579a3.6 3.6 0 0 1-.064-.729c0-1.03.364-1.952 1.008-2.66a3.1 3.1 0 0 1 1.566-.429c.579 0 1.116.172 1.588.429h-.021c12.141 10.725 29.75 14.8 37.279 31.294 2.896 6.564 9.48 6.112 15.659 3.754s10.338-5.019 15.659-7.443c5.319-2.423 12.055-5.791 4.076-13.471-1.566-1.566-.793-5.791-.536-8.773s2.188-5.469 1.416-7.829c-7.829-18.468 4.934-33.311 8.537-49.763 0-1.651 2.488-4.376 3.067-4.161 2.188.622 5.019 1.802 5.812 3.604 5.084 11.818 9.716 23.487 14.327 35.842.386.793.6 1.716.6 2.702s-.236 1.909-.6 2.746l.021-.042c-5.319 6.499-9.953 12.526 0 19.175.708.472 0 5.234-1.566 6.649-6.52 6.435-3.754 9.845 3.304 12.291 3.067 1.03 6.264 1.651 9.223 2.831 4.526 2.552 9.738 4.611 15.251 5.941l.429.086c7.85.536 6.52-8.687 10.188-12.055 7.786-6.328 16.516-12.484 25.589-18.145l1.116-.643a32 32 0 0 1 3.196-1.888l9.953-4.461c-1.243 3.131-2.338 6.349-3.754 9.395-5.748 13.363-14.521 24.473-25.502 32.882l-.193.15c-3.689 1.909-6.135 5.662-6.135 10.038 0 2.531.837 4.869 2.252 6.757l-.021-.021c2.08 4.355 4.205 9.695 5.985 15.207l.279.966c2.746 6.177 5.706 12.591 13.234 4.076a4.96 4.96 0 0 1 3.346-1.716h.021c6.027 0 9.932 12.591 17.695 3.604s13.234-.943 19.583 0c7.679 1.93 14.327 4.332 20.655 7.336l-.687-.3c2.188.858 6.027 2.896 5.856 3.668a12.76 12.76 0 0 1-4.226 7.808l-.021.021c-3.754 1.93-8.429 3.947-13.255 5.706l-.943.3c-5.213 2.145-9.653 4.569-13.792 7.443l.258-.172c-5.169 3.99-8.623 4.848-12.076-1.867s-7.85-7.829-11.668-1.008c-4.226 7.829-7.057 3.904-11.347.537-8.623-6.821-10.811-5.856-13.706 5.105-.751 3.754-1.566 6.907-2.51 9.953l.172-.643a15.6 15.6 0 0 0-1.845 7.336 15.64 15.64 0 0 0 8.473 13.9l.086.042c9.137 6.22 16.022 15.143 19.561 25.632l.107.343c1.501 4.397 9.953 6.885 4.484 12.441-1.116 1.158-8.623-3.454-12.848-6.027-11.539-6.327-21.234-14.65-28.891-24.581l-.172-.214c-3.281-4.784-6.885-6.027-12.912-1.867-6.691 3.99-14.629 7.936-22.864 11.347l-1.266.45c-5.406 2.746-6.67 7.829-.472 9.63 9.845 3.196 5.791 6.564.793 9.48s-5.941 7.829-2.273 10.939c5.941 5.791 4.075 11.175 1.801 17.46-3.281 9.073-5.62 18.382-9.009 27.39-1.008 2.573-4.461 4.311-6.735 6.435-1.867-2.123-4.611-3.904-5.641-6.435-4.461-11.433-8.515-22.908-12.462-34.512a8.5 8.5 0 0 1-.258-2.038c0-1.609.472-3.11 1.309-4.332l-.021.021c5.813-6.349 5.405-10.961-2.038-15.659-4.697-2.896-7.271-6.499 1.159-8.452a12.8 12.8 0 0 0 6.262-3.904l.021-.021c.837-.858.708-4.376 0-4.697-8.837-3.454-17.009-6.97-25.696-10.961v.064zm13.192-25.975v3.904c-.708 6.499 4.376 6.241 8.473 7.829 6.435 3.046 5.856-2.896 7.85-5.234s.793-3.754 1.651-5.491c1.566-2.96 3.518-5.791 5.255-8.773a42 42 0 0 1 7.743 7.721l.064.107c1.501 2.659.858 6.414 1.867 9.395.793 1.759 2.338 3.067 4.182 3.604h.042c.258.021.558.021.858.021 7.249 0 13.17-5.877 13.17-13.148 0-1.008-.107-1.995-.321-2.917l.021.086c-1.867-7.829 0-9.845 7.207-7.121s9.717-3.904 11.754-8.923c2.038-5.019-2.488-6.027-6.027-7.185a20.8 20.8 0 0 1-5.598-1.759l.129.064c-3.839-2.423-5.319-5.706-1.158-9.159 1.867-1.222 4.075-2.467 6.349-3.604l.386-.172c3.518-2.123 7.85-3.067 5.169-9.545s-2.488-12.205-10.811-9.159c-6.027 2.252-8.473.536-9.158-5.319a41.6 41.6 0 0 0-1.867-11.647l.086.3c-1.158-2.981-3.99-5.062-7.315-5.062a7.83 7.83 0 0 0-6.993 4.311l-.021.043c-1.243 2.123-.943 5.169-2.123 7.357-1.888 3.668-4.484 6.949-6.735 10.488-2.123-3.668-4.397-7.186-6.349-10.961-.536-1.093 0-2.981-.536-3.754-1.951-2.338-4.484-6.156-6.435-6.027a15.66 15.66 0 0 0-9.695 5.212l-.021.021c-1.716 2.123-1.159 6.112-1.501 9.309-.493 5.791-2.659 7.829-8.837 5.856-10.424-3.904-9.073 5.169-11.433 10.639-3.196 7.829 4.526 5.856 7.057 8.452 1.093 1.159 3.989 0 5.555 1.33a36.4 36.4 0 0 1 5.534 4.976l.021.021a51 51 0 0 1-5.063 3.797l-.193.107c-1.845 1.03-4.139 2.08-6.499 3.046l-.472.15c-7.85 3.454-5.405 9.309-3.196 14.714s4.484 9.845 11.347 6.499c6.885-3.346 10.424-3.281 6.67 5.555l-.086.042z"/></svg>

<?xml version="1.0" encoding="UTF-8" standalone="no"?>
<!DOCTYPE svg PUBLIC "-//W3C//DTD SVG 1.1//EN" "http://www.w3.org/Graphics/SVG/1.1/DTD/svg11.dtd">
<svg width="100%" height="100%" viewBox="0 0 300 300" version="1.1" xmlns="http://www.w3.org/2000/svg" xmlns:xlink="http://www.w3.org/1999/xlink" xml:space="preserve" xmlns:serif="http://www.serif.com/" style="fill-rule:evenodd;clip-rule:evenodd;stroke-linejoin:round;stroke-miterlimit:2;">
    <path d="M111.988,209.077C106.497,212.273 100.32,213.688 98.517,216.906C90.667,232.542 72.113,235.288 61.624,247.579C61.624,248.116 59.136,247.965 58.493,247.579C57.836,246.84 57.47,245.887 57.463,244.898C57.463,244.64 57.484,244.361 57.549,244.105L57.549,244.126C63.705,228.725 73.206,215.813 85.218,205.753L85.368,205.624C97.122,196.701 97.122,196.229 90.065,183.788C87.668,179.589 85.726,175.145 84.274,170.533L84.124,170.04C80.843,159.937 78.097,158.929 70.503,166.973C67.436,170.169 66.599,171.349 64.326,166.973C60.572,159.916 55.789,159.144 50.834,165.73C45.879,172.316 42.534,169.956 36.42,166.438C29.042,162.92 19.56,159.123 9.865,155.8L7.763,155.178C2.208,152.69 2.057,147.349 7.763,145.075C18.895,140.228 30.477,136.238 42.06,132.312C44.557,131.716 47.193,132.392 49.096,134.115C54.651,141.944 59.907,140.55 64.047,133.643C68.187,126.736 68.444,130.812 71.318,134.115C77.13,140.679 78.288,140.292 81.829,132.956C83.952,128.345 85.583,123.411 87.941,118.864C94.826,105.566 94.203,104.322 81.829,94.218C71.255,85.059 63.039,73.498 57.957,60.371L57.764,59.792C57.718,59.552 57.697,59.308 57.7,59.063C57.7,58.033 58.064,57.111 58.708,56.403C59.137,56.145 59.695,55.974 60.274,55.974C60.853,55.974 61.39,56.146 61.862,56.403L61.841,56.403C73.982,67.128 91.591,71.203 99.12,87.697C102.016,94.261 108.6,93.809 114.779,91.451C120.958,89.093 125.117,86.432 130.438,84.008C135.757,81.585 142.493,78.217 134.514,70.537C132.948,68.971 133.721,64.746 133.978,61.764C134.235,58.782 136.166,56.295 135.394,53.935C127.565,35.467 140.328,20.624 143.931,4.172C143.931,2.521 146.419,-0.204 146.998,0.011C149.186,0.633 152.017,1.813 152.81,3.615C157.894,15.433 162.526,27.102 167.137,39.457C167.523,40.25 167.737,41.173 167.737,42.159C167.737,43.145 167.501,44.068 167.137,44.905L167.158,44.863C161.839,51.362 157.205,57.389 167.158,64.038C167.866,64.51 167.158,69.272 165.592,70.687C159.072,77.122 161.838,80.532 168.896,82.978C171.963,84.008 175.16,84.629 178.119,85.809C182.645,88.361 187.857,90.42 193.37,91.75L193.799,91.836C201.649,92.372 200.319,83.149 203.987,79.781C211.773,73.453 220.503,67.297 229.576,61.636L230.692,60.993C231.72,60.302 232.787,59.672 233.888,59.105L243.841,54.644C242.598,57.775 241.503,60.993 240.087,64.039C234.339,77.402 225.566,88.512 214.585,96.921L214.392,97.071C210.703,98.98 208.257,102.733 208.257,107.109C208.257,109.64 209.094,111.978 210.509,113.866L210.488,113.845C212.568,118.2 214.693,123.54 216.473,129.052L216.752,130.018C219.498,136.195 222.458,142.609 229.986,134.094C230.832,133.105 232.035,132.488 233.332,132.378L233.353,132.378C239.38,132.378 243.285,144.969 251.048,135.982C258.811,126.995 264.282,135.039 270.631,135.982C278.31,137.912 284.958,140.314 291.286,143.318L290.599,143.018C292.787,143.876 296.626,145.914 296.455,146.686C296.027,149.71 294.527,152.482 292.229,154.494L292.208,154.515C288.454,156.445 283.779,158.462 278.953,160.221L278.01,160.521C272.797,162.666 268.357,165.09 264.218,167.964L264.476,167.792C259.307,171.782 255.853,172.64 252.4,165.925C248.947,159.21 244.55,158.096 240.732,164.917C236.506,172.746 233.675,168.821 229.385,165.454C220.762,158.633 218.574,159.598 215.679,170.559C214.928,174.313 214.113,177.466 213.169,180.512L213.341,179.869C212.134,182.126 211.5,184.645 211.496,187.205C211.492,193.051 214.77,198.43 219.969,201.105L220.055,201.147C229.192,207.367 236.077,216.29 239.616,226.779L239.723,227.122C241.224,231.519 249.676,234.007 244.207,239.563C243.091,240.721 235.584,236.109 231.359,233.536C219.82,227.209 210.125,218.886 202.468,208.955L202.296,208.741C199.015,203.957 195.411,202.714 189.384,206.874C182.693,210.864 174.755,214.81 166.52,218.221L165.254,218.671C159.848,221.417 158.584,226.5 164.782,228.301C174.627,231.497 170.573,234.865 165.575,237.781C160.577,240.697 159.634,245.61 163.302,248.72C169.243,254.511 167.377,259.895 165.103,266.18C161.822,275.253 159.483,284.562 156.094,293.57C155.086,296.143 151.633,297.881 149.359,300.005C147.492,297.882 144.748,296.101 143.718,293.57C139.257,282.137 135.203,270.662 131.256,259.058C131.088,258.392 131.001,257.707 130.998,257.02C130.998,255.411 131.47,253.91 132.307,252.688L132.286,252.709C138.099,246.36 137.691,241.748 130.248,237.05C125.551,234.154 122.977,230.551 131.407,228.598C133.832,227.94 136.01,226.582 137.669,224.694L137.69,224.673C138.527,223.815 138.398,220.297 137.69,219.976C128.853,216.522 120.681,213.006 111.994,209.015L111.994,209.079L111.988,209.077ZM125.18,183.102L125.18,187.006C124.472,193.505 129.556,193.247 133.653,194.835C140.088,197.881 139.509,191.939 141.503,189.601C143.497,187.263 142.296,185.847 143.154,184.11C144.72,181.15 146.672,178.319 148.409,175.337C151.315,177.562 153.918,180.158 156.152,183.058L156.216,183.165C157.717,185.824 157.074,189.579 158.083,192.56C158.876,194.319 160.421,195.627 162.265,196.164L162.307,196.164C162.565,196.185 162.865,196.185 163.165,196.185C170.414,196.185 176.335,190.308 176.335,183.037C176.335,182.029 176.228,181.042 176.014,180.12L176.035,180.206C174.168,172.377 176.035,170.361 183.242,173.085C190.449,175.809 192.959,169.181 194.996,164.162C197.034,159.143 192.508,158.135 188.969,156.977C187.029,156.658 185.144,156.066 183.371,155.218L183.5,155.282C179.661,152.859 178.181,149.576 182.342,146.123C184.209,144.901 186.417,143.656 188.691,142.519L189.077,142.347C192.595,140.224 196.927,139.28 194.246,132.802C191.565,126.324 191.758,120.597 183.435,123.643C177.408,125.895 174.962,124.179 174.277,118.324C174.211,114.373 173.582,110.451 172.41,106.677L172.496,106.977C171.338,103.996 168.506,101.915 165.181,101.915C162.227,101.913 159.514,103.586 158.188,106.226L158.167,106.269C156.924,108.392 157.224,111.438 156.044,113.626C154.156,117.294 151.56,120.575 149.309,124.114C147.186,120.446 144.912,116.928 142.96,113.153C142.424,112.06 142.96,110.172 142.424,109.399C140.473,107.061 137.94,103.243 135.989,103.372C132.234,103.878 128.787,105.731 126.294,108.584L126.273,108.605C124.557,110.728 125.114,114.717 124.772,117.914C124.279,123.705 122.113,125.743 115.935,123.77C105.511,119.866 106.862,128.939 104.502,134.409C101.306,142.238 109.028,140.265 111.559,142.861C112.652,144.02 115.548,142.861 117.114,144.191C119.124,145.656 120.978,147.324 122.648,149.167L122.669,149.188C121.062,150.557 119.371,151.825 117.606,152.985L117.413,153.092C115.568,154.122 113.274,155.172 110.914,156.138L110.442,156.288C102.592,159.742 105.037,165.597 107.246,171.002C109.455,176.407 111.73,180.847 118.593,177.501C125.478,174.155 129.017,174.22 125.263,183.056L125.177,183.098L125.18,183.102Z" style="fill-rule:nonzero;"/>
</svg>
